X: 5133
T: Bridgie O'Donnell
R: polka
M: 2/4
K: Gmajor
B2B>A|BG DG|A2A>B|AF ED|
B2B>A|BG DG|FA EF|G2G2:|
|:dB de|dB GA/B/|cB AG|FA D2|
dB de|dB GA/B/|cA FA G2G2:|

